assets/images/p_icon.svg

<svg fill="none" height="30" viewBox="0 0 30 30" width="30" xmlns="http://www.w3.org/2000/svg"><g fill="#000"><path clip-rule="evenodd" d="m3.75 6.5625c0-.24864.09877-.4871.27459-.66291.17581-.17582.41427-.27459.66291-.27459h20.625c.2486 0 .4871.09877.6629.27459.1758.17581.2746.41427.2746.66291s-.0988.4871-.2746.66291c-.1758.17582-.4143.27459-.6629.27459h-20.625c-.24864 0-.4871-.09877-.66291-.27459-.17582-.17581-.27459-.41427-.27459-.66291zm0 5.625c0-.2486.09877-.4871.27459-.6629.17581-.1758.41427-.2746.66291-.2746h11.25c.2486 0 .4871.0988.6629.2746s.2746.4143.2746.6629-.0988.4871-.2746.6629-.4143.2746-.6629.2746h-11.25c-.24864 0-.4871-.0988-.66291-.2746-.17582-.1758-.27459-.4143-.27459-.6629zm0 5.625c0-.2486.09877-.4871.27459-.6629.17581-.1758.41427-.2746.66291-.2746h11.25c.2486 0 .4871.0988.6629.2746s.2746.4143.2746.6629-.0988.4871-.2746.6629-.4143.2746-.6629.2746h-11.25c-.24864 0-.4871-.0988-.66291-.2746-.17582-.1758-.27459-.4143-.27459-.6629zm0 5.625c0-.2486.09877-.4871.27459-.6629.17581-.1758.41427-.2746.66291-.2746h20.625c.2486 0 .4871.0988.6629.2746s.2746.4143.2746.6629-.0988.4871-.2746.6629-.4143.2746-.6629.2746h-20.625c-.24864 0-.4871-.0988-.66291-.2746-.17582-.1758-.27459-.4143-.27459-.6629z" fill-rule="evenodd"/><path d="m22.815 11.91c.345.1969.6225.3694.8344.5156.2137.1388.4293.3263.6487.5607.2063.2193.3619.4499.4725.6918s.1875.5532.2306.9338h-.5268c-.4556 0-.81.1125-1.0669.3412-.2625.2194-.3938.5438-.3938.9769 0 .3075.1163.5962.3507.8681.2269.2625.5418.3938.945.3938.63 0 1.08-.2025 1.35-.6132.2719-.4181.4068-.9637.4068-1.6368 0-.4763-.1012-.9094-.3075-1.2975-.1975-.3848-.4488-.7396-.7462-1.0538-.3-.315-.6188-.5812-.9563-.8025-.3375-.2193-.6187-.3994-.8456-.5381zm-4.065 0c.345.1969.6225.3694.8344.5156.2137.1388.4294.3263.6487.5607.2119.2249.375.4612.4838.7031.1031.2343.1762.5419.2194.9225h-.5269c-.4538 0-.81.1125-1.0669.3412-.2625.2194-.3938.5438-.3938.9769 0 .3075.1163.5962.3507.8681.2269.2625.5418.3938.945.3938.63 0 1.08-.2025 1.35-.6132.2719-.4181.4069-.9637.4069-1.6368 0-.4763-.1013-.9094-.3076-1.2975-.1976-.3848-.4488-.7396-.7462-1.0538-.3-.315-.6188-.5812-.9563-.8025-.3375-.2193-.6187-.3994-.8456-.5381z"/></g></svg>

<svg width="30" height="30" viewBox="0 0 30 30" fill="none" xmlns="http://www.w3.org/2000/svg">
<path fill-rule="evenodd" clip-rule="evenodd" d="M3.75 6.5625C3.75 6.31386 3.84877 6.0754 4.02459 5.89959C4.2004 5.72377 4.43886 5.625 4.6875 5.625H25.3125C25.5611 5.625 25.7996 5.72377 25.9754 5.89959C26.1512 6.0754 26.25 6.31386 26.25 6.5625C26.25 6.81114 26.1512 7.0496 25.9754 7.22541C25.7996 7.40123 25.5611 7.5 25.3125 7.5H4.6875C4.43886 7.5 4.2004 7.40123 4.02459 7.22541C3.84877 7.0496 3.75 6.81114 3.75 6.5625ZM3.75 12.1875C3.75 11.9389 3.84877 11.7004 4.02459 11.5246C4.2004 11.3488 4.43886 11.25 4.6875 11.25H15.9375C16.1861 11.25 16.4246 11.3488 16.6004 11.5246C16.7762 11.7004 16.875 11.9389 16.875 12.1875C16.875 12.4361 16.7762 12.6746 16.6004 12.8504C16.4246 13.0262 16.1861 13.125 15.9375 13.125H4.6875C4.43886 13.125 4.2004 13.0262 4.02459 12.8504C3.84877 12.6746 3.75 12.4361 3.75 12.1875ZM3.75 17.8125C3.75 17.5639 3.84877 17.3254 4.02459 17.1496C4.2004 16.9738 4.43886 16.875 4.6875 16.875H15.9375C16.1861 16.875 16.4246 16.9738 16.6004 17.1496C16.7762 17.3254 16.875 17.5639 16.875 17.8125C16.875 18.0611 16.7762 18.2996 16.6004 18.4754C16.4246 18.6512 16.1861 18.75 15.9375 18.75H4.6875C4.43886 18.75 4.2004 18.6512 4.02459 18.4754C3.84877 18.2996 3.75 18.0611 3.75 17.8125ZM3.75 23.4375C3.75 23.1889 3.84877 22.9504 4.02459 22.7746C4.2004 22.5988 4.43886 22.5 4.6875 22.5H25.3125C25.5611 22.5 25.7996 22.5988 25.9754 22.7746C26.1512 22.9504 26.25 23.1889 26.25 23.4375C26.25 23.6861 26.1512 23.9246 25.9754 24.1004C25.7996 24.2762 25.5611 24.375 25.3125 24.375H4.6875C4.43886 24.375 4.2004 24.2762 4.02459 24.1004C3.84877 23.9246 3.75 23.6861 3.75 23.4375Z" fill="black"/>
<path d="M22.815 11.91C23.16 12.1069 23.4375 12.2794 23.6494 12.4256C23.8631 12.5644 24.0787 12.7519 24.2981 12.9863C24.5044 13.2056 24.66 13.4362 24.7706 13.6781C24.8812 13.92 24.9581 14.2313 25.0012 14.6119H24.4744C24.0188 14.6119 23.6644 14.7244 23.4075 14.9531C23.145 15.1725 23.0137 15.4969 23.0137 15.93C23.0137 16.2375 23.13 16.5262 23.3644 16.7981C23.5913 17.0606 23.9062 17.1919 24.3094 17.1919C24.9394 17.1919 25.3894 16.9894 25.6594 16.5787C25.9313 16.1606 26.0662 15.615 26.0662 14.9419C26.0662 14.4656 25.965 14.0325 25.7587 13.6444C25.5612 13.2596 25.3099 12.9048 25.0125 12.5906C24.7125 12.2756 24.3937 12.0094 24.0562 11.7881C23.7187 11.5688 23.4375 11.3887 23.2106 11.25L22.815 11.91ZM18.75 11.91C19.095 12.1069 19.3725 12.2794 19.5844 12.4256C19.7981 12.5644 20.0138 12.7519 20.2331 12.9863C20.445 13.2112 20.6081 13.4475 20.7169 13.6894C20.82 13.9237 20.8931 14.2313 20.9363 14.6119H20.4094C19.9556 14.6119 19.5994 14.7244 19.3425 14.9531C19.08 15.1725 18.9487 15.4969 18.9487 15.93C18.9487 16.2375 19.065 16.5262 19.2994 16.7981C19.5263 17.0606 19.8412 17.1919 20.2444 17.1919C20.8744 17.1919 21.3244 16.9894 21.5944 16.5787C21.8663 16.1606 22.0013 15.615 22.0013 14.9419C22.0013 14.4656 21.9 14.0325 21.6937 13.6444C21.4961 13.2596 21.2449 12.9048 20.9475 12.5906C20.6475 12.2756 20.3287 12.0094 19.9912 11.7881C19.6537 11.5688 19.3725 11.3887 19.1456 11.25L18.75 11.91Z" fill="black"/>
</svg>
